data/styles/clear/style-clear/symbols/speedcam-m.svg

<svg height="20" viewBox="0 0 20 20" width="20"><g fill="none" fill-rule="evenodd"><rect fill="#fff" height="20" opacity=".6" rx="3" width="20"/><rect fill="#000" height="18" rx="2" width="18" x="1" y="1"/><path d="m14 10v2c0 1.1045695-.8954305 2-2 2h-4c-1.1045695 0-2-.8954305-2-2v-2h-2v-2c0-2.209139 1.790861-4 4-4h4c2.209139 0 4 1.790861 4 4v2zm0 0h1v-2c0-1.65685425-1.3431458-3-3-3h-4c-1.65685425 0-3 1.34314575-3 3v2h1v-2c0-1.1045695.8954305-2 2-2h4c1.1045695 0 2 .8954305 2 2zm-4-1.99989086c-1.10450922 0-1.99989086.89538163-1.99989086 1.99989086 0 1.1045092.89538164 1.9998909 1.99989086 1.9998909h.0001091c1.1045093 0 1.9998909-.8953817 1.9998909-1.9998909 0-1.10450923-.8953816-1.99989086-1.9998909-1.99989086zm-2.5 3.99989086c-.27614237 0-.5.2238576-.5.5s.22385763.5.5.5.5-.2238576.5-.5-.22385763-.5-.5-.5zm1.5 2h2v2h-2z" fill="#fff"/></g></svg>

<svg width="20" height="20" viewBox="0 0 20 20">
  <g fill="none" fill-rule="evenodd">
    <rect width="20" height="20" fill="#FFF" opacity=".6" rx="3"/>
    <rect width="18" height="18" x="1" y="1" fill="#000" rx="2"/>
    <path fill="#FFF" d="M14,10 L14,12 C14,13.1045695 13.1045695,14 12,14 L8,14 C6.8954305,14 6,13.1045695 6,12 L6,10 L4,10 L4,8 C4,5.790861 5.790861,4 8,4 L12,4 C14.209139,4 16,5.790861 16,8 L16,10 L14,10 L14,10 Z M14,10 L15,10 L15,8 C15,6.34314575 13.6568542,5 12,5 L8,5 C6.34314575,5 5,6.34314575 5,8 L5,10 L6,10 L6,8 C6,6.8954305 6.8954305,6 8,6 L12,6 C13.1045695,6 14,6.8954305 14,8 L14,10 L14,10 Z M10,8.00010914 C8.89549078,8.00010914 8.00010914,8.89549077 8.00010914,10 C8.00010914,11.1045092 8.89549078,11.9998909 10,11.9998909 L10.0001091,11.9998909 C11.1046184,11.9998909 12,11.1045092 12,10 C12,8.89549077 11.1046184,8.00010914 10.0001091,8.00010914 L10,8.00010914 L10,8.00010914 Z M7.5,12 C7.22385763,12 7,12.2238576 7,12.5 C7,12.7761424 7.22385763,13 7.5,13 C7.77614237,13 8,12.7761424 8,12.5 C8,12.2238576 7.77614237,12 7.5,12 Z M9,14 L11,14 L11,16 L9,16 L9,14 Z"/>
  </g>
</svg>
